svg/Pictogram/pictograms-recycle-plastic-2-pehd.svg

<?xml version="1.0" encoding="UTF-8" standalone="no"?>
<!-- Created with Inkscape (http://www.inkscape.org/) --><svg height="89" id="svg2241" inkscape:export-filename="M:\recyclage4.jpg.png" inkscape:export-xdpi="104" inkscape:export-ydpi="104" inkscape:output_extension="org.inkscape.output.svg.inkscape" inkscape:version="0.46" sodipodi:docbase="M:\" sodipodi:docname="pictograms-recycle-plastic-2-PEHD.svg" sodipodi:modified="TRUE" sodipodi:version="0.32" version="1.0" width="89" xmlns="http://www.w3.org/2000/svg" xmlns:cc="http://creativecommons.org/ns#" xmlns:dc="http://purl.org/dc/elements/1.1/" xmlns:inkscape="http://www.inkscape.org/namespaces/inkscape" xmlns:rdf="http://www.w3.org/1999/02/22-rdf-syntax-ns#" xmlns:sodipodi="http://sodipodi.sourceforge.net/DTD/sodipodi-0.dtd" xmlns:svg="http://www.w3.org/2000/svg">
  <metadata>
    <rdf:RDF xmlns:cc="http://web.resource.org/cc/" xmlns:dc="http://purl.org/dc/elements/1.1/" xmlns:rdf="http://www.w3.org/1999/02/22-rdf-syntax-ns#">
      <cc:Work rdf:about="">
        <dc:title></dc:title>
        <dc:description></dc:description>
        <dc:subject>
          <rdf:Bag>
            <rdf:li>unsorted</rdf:li>
          </rdf:Bag>
        </dc:subject>
        <dc:publisher>
          <cc:Agent rdf:about="http://www.openclipart.org/">
            <dc:title>Open Clip Art Library, Source: Open Clip Art Library, Source: Open Clip Art Library</dc:title>
          </cc:Agent>
        </dc:publisher>
        <dc:creator>
          <cc:Agent>
            <dc:title></dc:title>
          </cc:Agent>
        </dc:creator>
        <dc:rights>
          <cc:Agent>
            <dc:title></dc:title>
          </cc:Agent>
        </dc:rights>
        <dc:date></dc:date>
        <dc:format>image/svg+xml</dc:format>
        <dc:type rdf:resource="http://purl.org/dc/dcmitype/StillImage"/>
        <cc:license rdf:resource="http://en.wikipedia.org/wiki/Public_domain"/>
        <dc:language>en</dc:language>
      </cc:Work>
    </rdf:RDF>
  </metadata>
  <defs id="defs2244">
    <inkscape:perspective id="perspective49" inkscape:persp3d-origin="165 : 110 : 1" inkscape:vp_x="0 : 165 : 1" inkscape:vp_y="0 : 1000 : 0" inkscape:vp_z="330 : 165 : 1" sodipodi:type="inkscape:persp3d"/>
  </defs>
  <sodipodi:namedview bordercolor="#666666" borderopacity="1.0" gridtolerance="10.0" guidetolerance="10.0" id="base" inkscape:current-layer="svg2241" inkscape:cx="37.499954" inkscape:cy="128.26041" inkscape:guide-bbox="true" inkscape:pageopacity="0.0" inkscape:pageshadow="2" inkscape:window-height="712" inkscape:window-width="1024" inkscape:window-x="110" inkscape:window-y="54" inkscape:zoom="0.72898565" objecttolerance="10.0" pagecolor="#ffffff" showgrid="false" showguides="true"/>
  <path d="M 53.526478,67.133556 C 53.272551,66.838156 52.198635,64.935856 51.139999,62.906216 L 49.215211,59.215966 L 51.126864,55.387046 C 53.223501,51.187616 53.71385,50.483956 54.543608,50.483956 C 55.376625,50.483956 55.734461,51.446216 55.734461,53.686286 L 55.734461,55.701346 L 61.583204,55.701346 C 64.936525,55.701346 68.023474,55.552396 68.818364,55.352236 C 70.597152,54.904336 72.147467,53.445026 72.589849,51.802146 C 73.265574,49.292696 73.06592,48.853266 64.635381,34.294466 C 63.242428,31.888956 62.102739,29.576086 62.102739,29.154756 C 62.102739,28.104786 62.574808,27.618296 64.802512,26.372496 C 66.425091,25.465096 66.828591,25.352756 67.441066,25.637896 C 67.895596,25.849506 69.01865,27.476706 70.465152,30.019526 C 71.730721,32.244286 74.307955,36.729356 76.19234,39.986356 C 78.219487,43.490106 79.770352,46.541186 79.990396,47.458426 C 80.560721,49.835816 80.240588,53.372266 79.270707,55.408666 C 78.243647,57.565106 76.166624,59.742746 74.173583,60.752696 C 71.284649,62.216626 69.649466,62.453256 62.42189,62.453256 L 55.734461,62.453256 L 55.734461,64.576486 C 55.734461,65.744266 55.650633,66.918176 55.548172,67.185176 C 55.299398,67.833466 54.101852,67.802886 53.526478,67.133556 z M 20.900745,62.164676 C 19.157055,61.737136 16.655699,60.241286 15.220451,58.767776 C 12.587557,56.064686 11.478445,52.478156 12.104012,48.690196 C 12.570097,45.867956 13.283798,44.297846 16.708017,38.561646 C 18.254428,35.971116 19.519672,33.740056 19.519672,33.603736 C 19.519672,33.467406 18.790048,32.944096 17.898287,32.440816 C 15.784429,31.247836 15.384882,30.765766 15.826313,29.940946 C 16.012764,29.592556 16.471197,29.293696 16.845053,29.276796 C 18.438433,29.204796 22.864596,29.337696 24.328947,29.501516 L 25.915723,29.679026 L 28.395438,33.353896 C 30.930581,37.110916 31.327793,38.250826 30.294502,38.803826 C 29.839801,39.047176 29.276041,38.882246 27.69544,38.043456 L 25.67703,36.972336 L 25.243542,37.666776 C 23.994074,39.668386 20.558825,45.605566 19.93264,46.845676 C 18.87128,48.947606 18.935969,51.237376 20.102202,52.847316 C 21.764004,55.141366 22.194116,55.217376 34.506475,55.393116 C 47.214365,55.574496 46.220404,55.244806 46.220404,59.278616 C 46.220404,61.474976 46.140247,61.860746 45.62677,62.135556 C 44.942709,62.501646 22.383452,62.528216 20.900745,62.164676 z M 27.469601,27.220446 C 25.427001,26.020766 25.043959,25.638436 25.043959,24.799316 C 25.043959,24.386546 27.561436,19.675706 30.641234,14.325396 C 36.722572,3.7607262 37.739689,2.4239062 40.85626,0.89944618 C 42.530016,0.080736183 42.975006,0.0018261831 45.927933,4.6183136e-05 C 49.011398,-0.0018238169 49.263726,0.048226183 51.249874,1.0555662 C 54.295432,2.6002262 56.242907,4.9048462 59.570773,10.902396 C 61.089953,13.640296 62.471025,16.065426 62.639823,16.291586 C 62.886077,16.621506 63.277495,16.492626 64.620484,15.639416 C 67.061839,14.088416 68.386331,14.310166 67.897152,16.188006 C 67.684193,17.005506 63.560731,23.498586 63.056717,23.810086 C 62.558644,24.117906 54.403361,24.502956 53.623577,24.255466 C 53.191927,24.118466 52.972315,23.793716 52.972315,23.292426 C 52.972315,22.701016 53.370822,22.287266 54.79987,21.394956 C 55.805024,20.767326 56.633668,20.130706 56.6413,19.980236 C 56.66,19.611526 51.564203,10.699396 50.592858,9.4020062 C 49.7232,8.2404462 47.754082,7.2238362 46.373857,7.2238362 C 45.134522,7.2238362 43.180992,8.1637662 42.176731,9.2432562 C 41.725087,9.7287362 39.13131,13.992956 36.412782,18.719286 C 33.694251,23.445626 31.240712,27.485266 30.960467,27.696266 C 30.175579,28.287206 29.017035,28.129296 27.469601,27.220446 z" id="path2260" sodipodi:nodetypes="ccccscccssssssssssscccsccssssssscccscccsssssccsssssssssssssssssssc" style="fill:#000000"/>
  <path d="M 53.110523,47.224656 L 39.095994,47.224656 L 39.095994,44.275486 C 40.166961,43.500236 41.239929,42.677026 42.3149,41.805866 C 43.38986,40.934706 44.251031,40.183426 44.898417,39.552026 C 45.865478,38.616936 46.552817,37.801726 46.960435,37.106376 C 47.368032,36.411056 47.571836,35.723716 47.571847,35.044366 C 47.571836,34.229156 47.310088,33.599766 46.786602,33.156176 C 46.263095,32.712616 45.50982,32.490836 44.526774,32.490816 C 43.791474,32.490836 43.018218,32.642686 42.207003,32.946376 C 41.395779,33.250096 40.642503,33.637726 39.947176,34.109256 L 39.563544,34.109256 L 39.563544,30.141076 C 40.130996,29.893326 40.96819,29.645566 42.07513,29.397786 C 43.18206,29.150046 44.290993,29.026166 45.401933,29.026146 C 47.639771,29.026166 49.346129,29.495716 50.521012,30.434796 C 51.695868,31.373906 52.283303,32.702626 52.283318,34.420966 C 52.283303,35.547886 52.001574,36.618856 51.438131,37.633876 C 50.874658,38.648906 50.013487,39.695896 48.854614,40.774856 C 48.127302,41.446216 47.396005,42.063616 46.660723,42.627076 C 45.92542,43.190536 45.401924,43.584156 45.090232,43.807936 L 53.110523,43.807936 L 53.110523,47.224656 z" id="text2274" style="font-size:24.55240059px;font-style:normal;font-variant:normal;font-weight:bold;font-stretch:normal;text-align:center;line-height:100%;text-anchor:middle;fill:#000000;fill-opacity:1;stroke:none;stroke-width:1px;stroke-linecap:butt;stroke-linejoin:miter;stroke-opacity:1;font-family:Verdana"/>
  <path d="M 24.733838,76.699606 C 24.733821,77.498846 24.593956,78.280096 24.314242,79.043356 C 24.034494,79.806626 23.634879,80.448006 23.115394,80.967506 C 22.404063,81.670836 21.610826,82.202326 20.735681,82.561966 C 19.86051,82.921626 18.771558,83.101456 17.468821,83.101456 L 14.603575,83.101456 L 14.603575,88.915866 L 10,88.915866 L 10,71.065016 L 17.576717,71.065016 C 18.711616,71.065036 19.668695,71.162946 20.447958,71.358736 C 21.227195,71.554566 21.916532,71.848286 22.51597,72.239896 C 23.235263,72.711456 23.784734,73.314876 24.164386,74.050156 C 24.544004,74.785456 24.733821,75.668606 24.733838,76.699606 L 24.733838,76.699606 z M 19.974413,76.807496 C 19.974401,76.303996 19.838531,75.870416 19.566805,75.506756 C 19.295054,75.143116 18.979358,74.889356 18.619715,74.745486 C 18.140165,74.553686 17.672615,74.447786 17.217063,74.427786 C 16.761492,74.407826 16.154076,74.397836 15.394815,74.397816 L 14.603575,74.397816 L 14.603575,79.744676 L 15.922308,79.744676 C 16.705546,79.744686 17.350925,79.696736 17.858447,79.600816 C 18.365948,79.504916 18.791539,79.313106 19.13522,79.025366 C 19.430924,78.769626 19.644718,78.463916 19.776603,78.108246 C 19.908464,77.752606 19.974401,77.319016 19.974413,76.807496 L 19.974413,76.807496 z M 40.894305,88.915866 L 27.982716,88.915866 L 27.982716,71.065016 L 40.894305,71.065016 L 40.894305,74.517706 L 32.562314,74.517706 L 32.562314,77.598736 L 40.294881,77.598736 L 40.294881,81.051426 L 32.562314,81.051426 L 32.562314,85.463186 L 40.894305,85.463186 L 40.894305,88.915866 z M 60.771199,88.915866 L 56.167624,88.915866 L 56.167624,81.051426 L 49.370158,81.051426 L 49.370158,88.915866 L 44.766583,88.915866 L 44.766583,71.065016 L 49.370158,71.065016 L 49.370158,77.598736 L 56.167624,77.598736 L 56.167624,71.065016 L 60.771199,71.065016 L 60.771199,88.915866 z M 82.206593,80.008426 C 82.206574,81.670836 81.826939,83.159406 81.067688,84.474136 C 80.3084,85.788876 79.349323,86.797896 78.190453,87.501226 C 77.319277,88.028716 76.364196,88.396366 75.325208,88.604166 C 74.286195,88.811966 73.055379,88.915866 71.632757,88.915866 L 65.338806,88.915866 L 65.338806,71.065016 L 71.812584,71.065016 C 73.267175,71.065036 74.521968,71.186926 75.576966,71.430666 C 76.631938,71.674456 77.519084,72.020116 78.238407,72.467676 C 79.469208,73.218966 80.438276,74.231996 81.145613,75.506756 C 81.852914,76.781536 82.206574,78.282096 82.206593,80.008426 L 82.206593,80.008426 z M 77.447168,79.972456 C 77.447154,78.797596 77.233359,77.792566 76.805784,76.957356 C 76.378182,76.122176 75.700834,75.468806 74.773738,74.997236 C 74.30218,74.765476 73.820643,74.607626 73.329126,74.523696 C 72.837589,74.439796 72.096302,74.397836 71.105264,74.397816 L 69.942381,74.397816 L 69.942381,85.571076 L 71.105264,85.571076 C 72.200202,85.571076 73.003429,85.521126 73.514948,85.421226 C 74.026445,85.321326 74.525964,85.139496 75.013507,84.875746 C 75.852688,84.396216 76.468096,83.754826 76.859733,82.951596 C 77.251342,82.148376 77.447154,81.155326 77.447168,79.972456 L 77.447168,79.972456 z" id="text2278" style="font-size:24.55240059px;font-style:normal;font-variant:normal;font-weight:bold;font-stretch:normal;text-align:center;line-height:100%;text-anchor:middle;fill:#000000;fill-opacity:1;stroke:none;stroke-width:1px;stroke-linecap:butt;stroke-linejoin:miter;stroke-opacity:1;font-family:Verdana"/>
</svg>

<svg xmlns="http://www.w3.org/2000/svg" viewBox="0 0 89 89"><path d="m53.53 67.13c-.254-.295-1.328-2.198-2.386-4.227l-1.925-3.69 1.912-3.829c2.097-4.199 2.587-4.903 3.417-4.903.833 0 1.191.962 1.191 3.202v2.02h5.849c3.353 0 6.44-.149 7.235-.349 1.779-.448 3.329-1.907 3.771-3.55.676-2.509.476-2.949-7.954-17.508-1.393-2.406-2.533-4.718-2.533-5.14 0-1.05.472-1.536 2.7-2.782 1.623-.907 2.026-1.02 2.639-.735.455.212 1.578 1.839 3.02 4.382 1.266 2.225 3.843 6.71 5.727 9.967 2.027 3.504 3.578 6.555 3.798 7.472.57 2.377.25 5.914-.72 7.95-1.027 2.156-3.104 4.334-5.097 5.344-2.889 1.464-4.524 1.701-11.752 1.701h-6.687v2.123c0 1.168-.084 2.342-.186 2.609-.249.648-1.446.618-2.02-.052m-32.626-4.969c-1.744-.428-4.245-1.923-5.68-3.397-2.633-2.703-3.742-6.29-3.116-10.08.466-2.822 1.18-4.392 4.604-10.129 1.546-2.591 2.812-4.822 2.812-4.958 0-.136-.73-.66-1.621-1.163-2.114-1.193-2.513-1.675-2.072-2.5.186-.348.645-.647 1.019-.664 1.593-.072 6.02.061 7.484.225l1.587.178 2.48 3.675c2.535 3.757 2.932 4.897 1.899 5.45-.455.243-1.018.078-2.599-.76l-2.02-1.071-.433.694c-1.249 2-4.685 7.939-5.311 9.179-1.061 2.102-.997 4.392.17 6 1.662 2.294 2.092 2.37 14.404 2.546 12.708.181 11.714-.148 11.714 3.886 0 2.196-.08 2.582-.594 2.857-.684.366-23.24.393-24.726.029m6.569-34.944c-2.043-1.2-2.426-1.582-2.426-2.421 0-.413 2.517-5.124 5.597-10.474 6.081-10.565 7.098-11.901 10.215-13.426 1.674-.819 2.119-.898 5.072-.899 3.083-.002 3.336.048 5.322 1.056 3.046 1.545 4.993 3.849 8.321 9.847 1.519 2.738 2.9 5.163 3.069 5.389.246.33.638.201 1.981-.652 2.441-1.551 3.766-1.329 3.277.549-.213.817-4.336 7.311-4.84 7.622-.498.308-8.653.693-9.433.445-.432-.137-.651-.462-.651-.963 0-.591.399-1.01 1.828-1.897 1.01-.628 1.834-1.264 1.841-1.415.019-.369-5.077-9.281-6.05-10.578-.87-1.162-2.839-2.178-4.219-2.178-1.239 0-3.193.94-4.197 2.02-.452.485-3.045 4.75-5.764 9.476-2.719 4.726-5.172 8.766-5.452 8.977-.785.591-1.943.433-3.491-.476"/><path d="m53.11 47.22h-14.01v-2.949c1.071-.775 2.144-1.598 3.219-2.47 1.075-.871 1.936-1.622 2.584-2.254.967-.935 1.654-1.75 2.062-2.446.408-.695.611-1.383.611-2.062 0-.815-.262-1.445-.785-1.888-.524-.444-1.277-.665-2.26-.665-.735 0-1.509.152-2.32.456-.811.304-1.565.691-2.26 1.163h-.384v-3.968c.567-.248 1.405-.496 2.512-.743 1.107-.248 2.216-.372 3.327-.372 2.238 0 3.944.47 5.119 1.409 1.175.939 1.762 2.268 1.762 3.986 0 1.127-.282 2.198-.845 3.213-.563 1.015-1.425 2.062-2.584 3.141-.727.671-1.459 1.289-2.194 1.852-.735.563-1.259.957-1.57 1.181h8.02v3.417"/><path d="m24.734 76.7c0 .799-.14 1.58-.42 2.344-.28.763-.679 1.405-1.199 1.924-.711.703-1.505 1.235-2.38 1.594-.875.36-1.964.539-3.267.539h-2.865v5.814h-4.604v-17.851h7.577c1.135 0 2.092.098 2.871.294.779.196 1.469.49 2.068.881.719.472 1.269 1.075 1.648 1.81.38.735.569 1.618.569 2.649m-4.759.108c0-.504-.136-.937-.408-1.301-.272-.364-.587-.617-.947-.761-.48-.192-.947-.298-1.403-.318-.456-.02-1.063-.03-1.822-.03h-.791v5.347h1.319c.783 0 1.429-.048 1.936-.144.508-.096.933-.288 1.277-.575.296-.256.509-.561.641-.917.132-.356.198-.789.198-1.301m20.92 12.11h-12.912v-17.851h12.912v3.453h-8.332v3.081h7.733v3.453h-7.733v4.412h8.332v3.453m19.877 0h-4.604v-7.864h-6.797v7.864h-4.604v-17.851h4.604v6.534h6.797v-6.534h4.604v17.851m21.435-8.907c0 1.662-.38 3.151-1.139 4.466-.759 1.315-1.718 2.324-2.877 3.03-.871.527-1.826.895-2.865 1.103-1.039.208-2.27.312-3.692.312h-6.294v-17.851h6.474c1.455 0 2.709.122 3.764.366 1.055.244 1.942.589 2.661 1.037 1.231.751 2.2 1.764 2.907 3.039.707 1.275 1.061 2.775 1.061 4.502m-4.759-.036c0-1.175-.214-2.18-.641-3.02-.428-.835-1.105-1.489-2.032-1.96-.472-.232-.953-.39-1.445-.474-.492-.084-1.233-.126-2.224-.126h-1.163v11.173h1.163c1.095 0 1.898-.05 2.41-.15.511-.1 1.011-.282 1.499-.545.839-.48 1.455-1.121 1.846-1.924.392-.803.587-1.796.587-2.979"/></svg>
